src/assets/icons/alarmIcon.svg

<svg viewBox="0 0 30 30" fill="none" xmlns="http://www.w3.org/2000/svg">
<g clip-path="url(#clip0_430_767)">
<path d="M24.3236 26.9589L22.5986 23.8379L20.3457 24.8884L21.906 29.1054C22.2655 29.8764 23.1873 30.2173 23.9646 29.8547C24.74 29.4932 25.0755 28.5715 24.7139 27.7961L24.3236 26.9589Z" fill="#BFBFBF"/>
<path d="M7.57738 23.9204L5.67502 26.9588L5.28467 27.7959C4.92309 28.5713 5.25859 29.493 6.03396 29.8545C6.80049 30.2122 7.72785 29.8875 8.09259 29.1052L9.51015 24.8216L7.57738 23.9204Z" fill="#BFBFBF"/>
<path d="M5.67529 26.9587C6.3793 27.7802 7.18988 28.5075 8.08578 29.1194C8.08806 29.1146 8.09058 29.11 8.09287 29.1052L9.98673 25.0437L7.17881 23.7344L5.67529 26.9587Z" fill="#ACACAC"/>
<path d="M24.3241 26.9587L22.8206 23.7344L20.0127 25.0437L21.9066 29.1052C21.9088 29.1101 21.9114 29.1146 21.9137 29.1194C22.8096 28.5076 23.6201 27.7803 24.3241 26.9587Z" fill="#ACACAC"/>
<path d="M6.30748 7.53033L5.78306 7.20215L4.77197 8.21318L5.09793 8.74006L7.92132 11.5634L9.13093 10.3538L6.30748 7.53033Z" fill="#ACACAC"/>
<path d="M2.97705 6.62012L4.18652 5.41065L6.30611 7.53024L5.09664 8.7397L2.97705 6.62012Z" fill="#9C9C9C"/>
<path d="M2.00302 4.55529C0.81456 5.80802 0.833662 7.78667 2.06202 9.01503L2.58403 9.53704C2.72718 9.68018 2.95927 9.68018 3.10247 9.53704L6.98478 5.65468C7.12792 5.51154 7.12792 5.27939 6.98478 5.13625L6.46276 4.61424C5.23435 3.38588 3.25575 3.36684 2.00302 4.55529Z" fill="#EB5569"/>
<path d="M25.3623 8.00338L24.3785 7.01953L23.606 7.61596L20.8682 10.3537L22.0778 11.5634L24.8157 8.82556L25.3623 8.00338Z" fill="#ACACAC"/>
<path d="M16.2066 4.11203V1.51709H13.7921V4.11203H13.7163V10.2538H16.2824V4.11203H16.2066Z" fill="#ACACAC"/>
<path d="M13.7163 1.85938H16.2824V4.11207H13.7163V1.85938Z" fill="#9C9C9C"/>
<path d="M18.647 1.54266C18.647 0.690703 17.9563 0 17.1043 0H12.7238C11.8718 0 11.1812 0.690703 11.1812 1.54266C11.1812 2.39467 11.8719 3.08531 12.7238 3.08531H17.1043C17.9563 3.08531 18.647 2.39467 18.647 1.54266Z" fill="#EB5569"/>
<path d="M23.603 7.61768L25.8082 5.41254L27.0176 6.62201L24.8125 8.82714L23.603 7.61768Z" fill="#9C9C9C"/>
<path d="M17.2755 0H15.5645C16.4165 0 17.1071 0.690703 17.1071 1.54266C17.1071 2.39467 16.4164 3.08531 15.5645 3.08531H17.2755C18.1275 3.08531 18.8182 2.39467 18.8182 1.54266C18.8182 0.690703 18.1275 0 17.2755 0Z" fill="#E53950"/>
<path d="M27.8757 4.43517C26.623 3.24672 24.6443 3.26576 23.416 4.49412L22.894 5.01613C22.7508 5.15927 22.7508 5.39142 22.894 5.53457L26.7763 9.41692C26.9195 9.56007 27.1516 9.56007 27.2947 9.41692L27.8167 8.89491C29.0451 7.66656 29.0642 5.68791 27.8757 4.43517Z" fill="#EB5569"/>
<path d="M27.9378 4.49416C27.7282 4.28451 27.4964 4.11096 27.2503 3.97168C27.9405 5.19107 27.7669 6.76695 26.7278 7.806L26.2058 8.32801C26.0627 8.47115 25.8307 8.47115 25.6875 8.32813L26.8973 9.53791C27.0404 9.68106 27.2725 9.68106 27.4157 9.53791L27.9377 9.0159C29.1864 7.76727 29.1864 5.74279 27.9378 4.49416Z" fill="#E53950"/>
<path d="M6.58371 4.49311C5.33508 3.24448 3.31061 3.24448 2.06197 4.49311C1.85238 4.7027 1.67877 4.93456 1.53955 5.18059C2.75895 4.49042 4.33482 4.66403 5.37381 5.70301L5.89582 6.22503C6.03896 6.36817 6.03896 6.60032 5.89582 6.74346L3.1023 9.53697C3.10236 9.53691 3.10236 9.53691 3.10242 9.53691L7.10572 5.53356C7.24887 5.39042 7.24887 5.15827 7.10572 5.01512L6.58371 4.49311Z" fill="#E53950"/>
<path d="M14.9998 29.5401C21.7791 29.5401 27.2749 24.0443 27.2749 17.2649C27.2749 10.4855 21.7791 4.98975 14.9998 4.98975C8.22038 4.98975 2.72461 10.4855 2.72461 17.2649C2.72461 24.0443 8.22038 29.5401 14.9998 29.5401Z" fill="#EB5569"/>
<path d="M14.9996 4.98975C14.7162 4.98975 14.4353 5.00023 14.1567 5.0191C20.5429 5.45223 25.5891 10.7688 25.5891 17.2649C25.5891 23.761 20.5429 29.0775 14.1567 29.5107C14.4353 29.5296 14.7162 29.5401 14.9996 29.5401C21.7789 29.5401 27.2747 24.0443 27.2747 17.2649C27.2747 10.4855 21.7789 4.98975 14.9996 4.98975Z" fill="#E53950"/>
<path d="M14.9996 27.402C20.598 27.402 25.1363 22.8636 25.1363 17.2652C25.1363 11.6668 20.598 7.12842 14.9996 7.12842C9.40118 7.12842 4.86279 11.6668 4.86279 17.2652C4.86279 22.8636 9.40118 27.402 14.9996 27.402Z" fill="#E8EDF2"/>
<path d="M14.9997 7.12842C14.6823 7.12842 14.3686 7.14383 14.0586 7.17254C19.2084 7.64891 23.2543 11.9931 23.2543 17.2653C23.2543 22.5373 19.2085 26.8815 14.0586 27.358C14.3686 27.3866 14.6823 27.402 14.9997 27.402C20.5891 27.402 25.1364 22.8547 25.1364 17.2653C25.1364 11.6758 20.5891 7.12842 14.9997 7.12842Z" fill="#D9E7EC"/>
<path d="M15.0455 16.9842C14.7954 16.9842 14.5928 16.7815 14.5928 16.5315V11.7813C14.5928 11.5313 14.7954 11.3286 15.0455 11.3286C15.2955 11.3286 15.4982 11.5313 15.4982 11.7813V16.5315C15.4982 16.7815 15.2955 16.9842 15.0455 16.9842Z" fill="#838383"/>
<path d="M18.6411 17.7174H15.3878C15.1377 17.7174 14.9351 17.5147 14.9351 17.2647C14.9351 17.0147 15.1377 16.812 15.3878 16.812H18.6411C18.8911 16.812 19.0938 17.0147 19.0938 17.2647C19.0938 17.5147 18.8911 17.7174 18.6411 17.7174Z" fill="#9C9C9C"/>
<path d="M15.0453 18.8836C15.9395 18.8836 16.6644 18.1588 16.6644 17.2646C16.6644 16.3704 15.9395 15.6455 15.0453 15.6455C14.1511 15.6455 13.4263 16.3704 13.4263 17.2646C13.4263 18.1588 14.1511 18.8836 15.0453 18.8836Z" fill="#FBC56D"/>
<path d="M4.8734 17.7174H7.2144C7.46442 17.7174 7.66709 17.5147 7.66709 17.2647C7.66709 17.0147 7.46442 16.812 7.2144 16.812H4.8734C4.86678 16.9622 4.86279 17.113 4.86279 17.2647C4.86279 17.4165 4.86678 17.5673 4.8734 17.7174Z" fill="#ACACAC"/>
<path d="M14.9996 24.5977C14.7496 24.5977 14.5469 24.8003 14.5469 25.0504V27.3913C14.697 27.398 14.8479 27.402 14.9996 27.402C15.1513 27.402 15.3022 27.398 15.4523 27.3913V25.0504C15.4523 24.8003 15.2496 24.5977 14.9996 24.5977Z" fill="#ACACAC"/>
<path d="M14.9996 7.12842C14.8478 7.12842 14.697 7.1324 14.5469 7.13902V9.48009C14.5469 9.73011 14.7496 9.93278 14.9996 9.93278C15.2496 9.93278 15.4523 9.73011 15.4523 9.48009V7.13902C15.3022 7.1324 15.1513 7.12842 14.9996 7.12842Z" fill="#ACACAC"/>
<path d="M15.0454 15.6455C14.7689 15.6455 14.506 15.7192 14.2754 15.8475C14.7765 16.1263 15.1245 16.6635 15.1245 17.2645C15.1245 17.8656 14.7766 18.4027 14.2754 18.6815C14.506 18.8098 14.7689 18.8835 15.0454 18.8835C15.923 18.8835 16.6644 18.1421 16.6644 17.2645C16.6644 16.3869 15.923 15.6455 15.0454 15.6455Z" fill="#E9B665"/>
<path d="M25.1257 16.812H22.7847C22.5347 16.812 22.332 17.0147 22.332 17.2647C22.332 17.5148 22.5347 17.7174 22.7847 17.7174H25.1257C25.1323 17.5673 25.1363 17.4165 25.1363 17.2647C25.1363 17.113 25.1323 16.9622 25.1257 16.812Z" fill="#ACACAC"/>
<path d="M25.1337 17.0351C25.1319 16.9605 25.1293 16.8863 25.1261 16.8121V16.812H23.2441C23.2508 16.9621 23.2545 17.113 23.2545 17.2648C23.2545 17.4165 23.2508 17.5673 23.2441 17.7175H25.1261C25.1293 17.6433 25.1319 17.5689 25.1337 17.4944C25.1354 17.4183 25.1366 17.3421 25.1367 17.2656C25.1367 17.2654 25.1367 17.2651 25.1367 17.2648C25.1367 17.188 25.1355 17.1115 25.1337 17.0351Z" fill="#9C9C9C"/>
<path d="M14.9997 27.8542C9.16064 27.8542 4.41016 23.1038 4.41016 17.2648C4.41016 11.4257 9.16058 6.67529 14.9997 6.67529C20.8388 6.67529 25.5892 11.4257 25.5892 17.2648C25.5892 23.1039 20.8388 27.8542 14.9997 27.8542ZM14.9997 7.58068C9.65986 7.58068 5.31561 11.9249 5.31561 17.2648C5.31561 22.6045 9.65986 26.9488 14.9997 26.9488C20.3395 26.9488 24.6838 22.6045 24.6838 17.2648C24.6838 11.9249 20.3395 7.58068 14.9997 7.58068Z" fill="#F58A97"/>
</g>
<defs>
<clipPath id="clip0_430_767">
<rect width="30" height="30" fill="white"/>
</clipPath>
</defs>
</svg>

<svg viewBox="0 0 30 30" fill="none" xmlns="http://www.w3.org/2000/svg"><g clip-path="url(#a)"><path d="m24.324 26.959-1.725-3.121-2.253 1.05 1.56 4.217a1.549 1.549 0 1 0 2.808-1.31l-.39-.836ZM7.577 23.92 5.675 26.96l-.39.837a1.549 1.549 0 1 0 2.808 1.31l1.417-4.284-1.933-.902Z" fill="#BFBFBF"/><path d="M5.675 26.959a12.346 12.346 0 0 0 2.41 2.16l.008-.014 1.894-4.061-2.808-1.31-1.504 3.225ZM24.324 26.959l-1.503-3.225-2.808 1.31 1.894 4.061.007.014a12.339 12.339 0 0 0 2.41-2.16ZM6.307 7.53l-.524-.328-1.011 1.011.326.527 2.823 2.823 1.21-1.21L6.307 7.53Z" fill="#ACACAC"/><path d="m2.977 6.62 1.21-1.21 2.12 2.12-1.21 1.21-2.12-2.12Z" fill="#9C9C9C"/><path d="M2.003 4.555a3.197 3.197 0 0 0 .059 4.46l.522.522a.367.367 0 0 0 .518 0l3.883-3.882a.367.367 0 0 0 0-.519l-.522-.522a3.197 3.197 0 0 0-4.46-.059Z" fill="#EB5569"/><path d="m25.362 8.003-.983-.983-.773.596-2.738 2.738 1.21 1.21 2.738-2.738.546-.823ZM16.207 4.112V1.517h-2.415v2.595h-.076v6.142h2.566V4.112h-.075Z" fill="#ACACAC"/><path d="M13.716 1.86h2.566v2.252h-2.566V1.86Z" fill="#9C9C9C"/><path d="M18.647 1.543C18.647.69 17.957 0 17.104 0h-4.38a1.543 1.543 0 0 0 0 3.085h4.38c.852 0 1.543-.69 1.543-1.542Z" fill="#EB5569"/><path d="m23.603 7.618 2.205-2.205 1.21 1.209-2.206 2.205-1.209-1.21Z" fill="#9C9C9C"/><path d="M17.276 0h-1.711a1.543 1.543 0 0 1 0 3.085h1.71a1.543 1.543 0 1 0 0-3.085Z" fill="#E53950"/><path d="M27.876 4.435a3.197 3.197 0 0 0-4.46.06l-.522.521a.367.367 0 0 0 0 .519l3.882 3.882a.367.367 0 0 0 .519 0l.522-.522a3.197 3.197 0 0 0 .059-4.46Z" fill="#EB5569"/><path d="M27.938 4.494a3.196 3.196 0 0 0-.688-.522 3.198 3.198 0 0 1-.522 3.834l-.522.522a.367.367 0 0 1-.518 0l1.21 1.21a.367.367 0 0 0 .518 0l.522-.522a3.197 3.197 0 0 0 0-4.522ZM6.584 4.493a3.197 3.197 0 0 0-5.044.688 3.198 3.198 0 0 1 3.834.522l.522.522a.367.367 0 0 1 0 .518L3.102 9.537l4.004-4.003a.367.367 0 0 0 0-.519l-.522-.522Z" fill="#E53950"/><path d="M15 29.54c6.78 0 12.275-5.496 12.275-12.275 0-6.78-5.496-12.275-12.275-12.275-6.78 0-12.275 5.495-12.275 12.275S8.22 29.54 15 29.54Z" fill="#EB5569"/><path d="M15 4.99c-.284 0-.565.01-.843.03 6.386.432 11.432 5.749 11.432 12.245 0 6.496-5.046 11.813-11.432 12.246.278.019.56.03.843.03 6.779 0 12.275-5.497 12.275-12.276 0-6.78-5.496-12.275-12.275-12.275Z" fill="#E53950"/><path d="M15 27.402c5.598 0 10.136-4.538 10.136-10.137 0-5.598-4.538-10.137-10.136-10.137-5.599 0-10.137 4.539-10.137 10.137C4.863 22.864 9.4 27.402 15 27.402Z" fill="#E8EDF2"/><path d="M15 7.128c-.318 0-.631.016-.941.045 5.15.476 9.195 4.82 9.195 10.092s-4.046 9.616-9.195 10.093c.31.029.623.044.94.044 5.59 0 10.137-4.547 10.137-10.137 0-5.59-4.547-10.137-10.136-10.137Z" fill="#D9E7EC"/><path d="M15.046 16.984a.453.453 0 0 1-.453-.453v-4.75a.453.453 0 1 1 .905 0v4.75c0 .25-.202.453-.452.453Z" fill="#838383"/><path d="M18.641 17.717h-3.253a.453.453 0 1 1 0-.905h3.253a.453.453 0 0 1 0 .905Z" fill="#9C9C9C"/><path d="M15.045 18.884a1.619 1.619 0 1 0 0-3.238 1.619 1.619 0 0 0 0 3.238Z" fill="#FBC56D"/><path d="M4.873 17.717h2.341a.453.453 0 0 0 0-.905h-2.34a10.274 10.274 0 0 0 0 .905ZM15 24.598a.453.453 0 0 0-.453.452v2.341a10.148 10.148 0 0 0 .905 0v-2.34a.453.453 0 0 0-.452-.453ZM15 7.128c-.152 0-.303.004-.453.011V9.48a.453.453 0 0 0 .905 0V7.14a10.27 10.27 0 0 0-.452-.01Z" fill="#ACACAC"/><path d="M15.045 15.646c-.276 0-.539.073-.77.201.502.28.85.816.85 1.418 0 .6-.348 1.138-.85 1.416.231.129.494.203.77.203a1.64 1.64 0 0 0 1.62-1.62 1.64 1.64 0 0 0-1.62-1.618Z" fill="#E9B665"/><path d="M25.126 16.812h-2.341a.453.453 0 0 0 0 .905h2.34a10.298 10.298 0 0 0 0-.905Z" fill="#ACACAC"/><path d="M25.134 17.035a11.747 11.747 0 0 0-.008-.223h-1.882a10.15 10.15 0 0 1 0 .905h1.882a11.786 11.786 0 0 0 .01-.451v-.001c0-.077 0-.154-.002-.23Z" fill="#9C9C9C"/><path d="M15 27.854c-5.84 0-10.59-4.75-10.59-10.59C4.41 11.427 9.16 6.676 15 6.676c5.839 0 10.59 4.75 10.59 10.59 0 5.839-4.751 10.59-10.59 10.59Zm0-20.273c-5.34 0-9.684 4.344-9.684 9.684 0 5.34 4.344 9.684 9.684 9.684 5.34 0 9.684-4.345 9.684-9.684 0-5.34-4.345-9.684-9.684-9.684Z" fill="#F58A97"/></g><defs><clipPath id="a"><path fill="#fff" d="M0 0h30v30H0z"/></clipPath></defs></svg>
